X: 36472
T: See It. Say It. Sorted.
R: reel
M: 4/4
K: Amajor
K:F#min
|:FGAG F2 E2|-E2 FG AGF2|B2 A2 Bc d2|A2 G2 CD E2|
FGAG F2 E2|-E2 FG AGF2|c2 A2 BA G2|1 A2 F2 GF E2:|2 A2 F2 cd e2||
fgag f2 e2|-e2 fg a2 d2|-d2 fg a2 c2|a2 B2 a2 g2|
fgag f2 B2|-B2 A2 Bc d2|-d2 B2 cd e2|-e2 c2 de ^e2|
fgag f2 e2|-e2 fg a2 d2|-d2 fg a2 c2|a2 B2 a2 g2|
fgag f2 e2|fg a2 d2 a2|c2 a2 B2 a2|A2 a2 G2 a2|

